!!!!SEGMENT:40Mysterioso.krn
!!!OTL: Mysterioso（怪異）
!!!OPR:Eiga Banso Kyokusyu,jidai-geki,zenpen
!!!YOY:1929
!!!ONB:Mysterioso,Shinobikomi,Seisan
**kern	**dynam
*clefG2	*
*k[b-e-]	*
*B-:	*
*M4/4	*
*met(c)	*
=1	=1
!LO:TX:a:B:t=Andante	!
8GL	p
8r	.
8B-J	.
8r	.
8e-L	.
8r	.
8r	.
8dJ	.
=2	=2
8c#XL	.
8r	.
8d	.
8r	.
8B-	.
8r	.
8AJ	.
8r	.
=3	=3
8GL	.
8r	.
8B-	.
8r	.
8d	.
8r	.
8gJ	.
8r	.
=4	=4
2.en 2.b-	.
4r	.
=5	=5
8gL	.
8r	.
8dJ	.
8r	.
8e-L	.
8r	.
8r	.
8cJ	.
=6	=6
8dL	.
8r	.
8A	.
8r	.
8B-	.
8r	.
8GJ	.
8r	.
=7	=7
8.AL	.
16B-Jk	.
8.cL	.
16e-Jk	.
8dL	.
8r	.
8dJ	.
8r	.
=8	=8
2.G	.
4r	.
=9	=9
8.GL	.
16gk	.
8.f	.
16e-Jk	.
8dL	.
8r	.
8GJ	.
8r	.
=10	=10
8B-	.
8r	.
8B-	.
4r	.
8r	.
4d	.
=11	=11
8.GL	.
16gJk	.
8.fL	.
16e-Jk	.
8dL	.
8r	.
8B-J	.
8r	.
=12	=12
8AL	.
8r	.
8dJ	.
8r	.
8.r	.
16c	.
8.B-L	.
16AJk	.
=13	=13
8.GL	.
16AJk	.
8B-	.
8r	.
4r	.
8Bn	.
8r	.
=14	=14
8.cL	.
16dJk	.
8e-	.
8r	.
4r	.
8c	.
8r	.
=15	=15
8dL	.
8r	.
8c	.
8r	.
8B-	.
8r	.
8AJ	.
8r	.
=16	=16
2.G	.
4r	.
==	==
*-	*-
!!!ENC: Yukiko Yoden
!!!END: 2023/06/11
